fs/fixed_width_20_regular.svg

<svg viewBox="0 0 20 20" fill="none" xmlns="http://www.w3.org/2000/svg" height="1em" width="1em">
  <path d="M3.5 3C3.77614 3 4 3.22386 4 3.5V5H9.5V3.5C9.5 3.22386 9.72386 3 10 3C10.2761 3 10.5 3.22386 10.5 3.5V5H16V3.5C16 3.22386 16.2239 3 16.5 3C16.7761 3 17 3.22386 17 3.5V7.5C17 7.77614 16.7761 8 16.5 8C16.2239 8 16 7.77614 16 7.5V6H10.5V7.5C10.5 7.77614 10.2761 8 10 8C9.72386 8 9.5 7.77614 9.5 7.5V6H4V7.5C4 7.77614 3.77614 8 3.5 8C3.22386 8 3 7.77614 3 7.5V3.5C3 3.22386 3.22386 3 3.5 3ZM3 11C3 9.89543 3.89543 9 5 9H15C16.1046 9 17 9.89543 17 11V15C17 16.1046 16.1046 17 15 17H5C3.89543 17 3 16.1046 3 15V11ZM10.5 16H15C15.5523 16 16 15.5523 16 15V11C16 10.4477 15.5523 10 15 10H10.5V16ZM9.5 10H5C4.44772 10 4 10.4477 4 11V15C4 15.5523 4.44772 16 5 16H9.5V10Z" fill="#212121"/>
</svg>

<svg viewBox="0 0 20 20" fill="none" xmlns="http://www.w3.org/2000/svg" height="1em" width="1em">
  <path d="M3.5 3a.5.5 0 0 1 .5.5V5h5.5V3.5a.5.5 0 0 1 1 0V5H16V3.5a.5.5 0 0 1 1 0v4a.5.5 0 0 1-1 0V6h-5.5v1.5a.5.5 0 0 1-1 0V6H4v1.5a.5.5 0 0 1-1 0v-4a.5.5 0 0 1 .5-.5ZM3 11a2 2 0 0 1 2-2h10a2 2 0 0 1 2 2v4a2 2 0 0 1-2 2H5a2 2 0 0 1-2-2v-4Zm7.5 5H15a1 1 0 0 0 1-1v-4a1 1 0 0 0-1-1h-4.5v6Zm-1-6H5a1 1 0 0 0-1 1v4a1 1 0 0 0 1 1h4.5v-6Z" fill="#212121"/>
</svg>
